X: 697
T: Ey Bülend Ahter
C: Dede Efendi
O: Turkey
F: http://compmusic.upf.edu/node/140
N: rehavi--sarki--duyek--ey_bulend--dede_efendi
N: makam= rehavi
N: form= sarki
N: usul= duyek = 8/4
M: 8/4
L: 1/16
K: C _1/4B ^f  
Q: 1/4=108
%%MIDI tuningsystem comma53
D2 G4 A2 B3/2c/ BA G4  | z2 c4 B2 ed cB A4  | \
w:  ARANAĞME  |   | 
z2 d4 ef ag =fe dc BA  | 
w:   | 
G2 D4 D2 B2 AG {A}G4  | D2 G4 A2 B3/2c/ BA G4  | \
w:   |  ARANAĞME  | 
z2 c4 B2 ed cB A4  | 
w:   | 
z2 d4 ef ag =fe dc BA  | G2 D4 D2 B2 AG {A}G4  | \
w:   |   | 
z2 D4 A2 G2 AB A2 {B}AG  | 
w:  Ey  bü lend_  | 
z2 A4 G2 dc BA {c}BA B2  | z2 AB A2 B2 c2 {d}cd c2 B2  | \
w:  ah  |  ter  *  *  meh_ i   | 
z2 d4 cB c2 {d}cB c2 d2  | 
w:  sa  | 
z2 e=f e2 d2 d2 {g}fe ef ed  | c2 d4 cB c2 {d}cB c2 d2  | 
w:  hip  *  *  *  *  *  *  *  ke  |  rem    | 
z2 =fe d2 e2 d2 e4 dc  | d2 e=f ag fe ed dc {d}BA B2  | 
w:  Bin  *  *  ya şa   |  öm  | 
z2 AB A2 B2 c2 {e}cd c2 B2  | z2 d4 cB =fe dc BA G2  | 
w:  rün *  *  de  sen   |  hiç   | 
z2 c4 Ac B2 GB A2 {B}AG  | F2 G4 D2 B2 AG G4  | \
w:  çek *  *  *  *  *  *  *  me   |  gam   *  SAZ  | 
z2 gf e2 fg f2 g4 f2  | 
w:  Nâ *  *  zım_ ı   | 
z2 a4 gf ag fe {f}d^c d2  | z2 ed ^c2 d2 e3=f e3/2f/ ed  | 
w:  â  |  lem  *  *  sa na   | 
g2 fg a2 gf f/e/f/g/ fe d^c d2  | \
w:  ol  | 
z2 g4 eg f2 d2 =fe {f}de  | 
w:  muş  *  *  *  *  â  | 
c2 d4 cB c2 {d}cB c2 d2  | z2 =fe d2 e2 d2 e4 dc  | \
w:  lem    |  Bin  *  *  ya şa   | 
d2 e=f ag fe ed dc {d}BA B2  | 
w:  öm  | 
z2 AB A2 B2 c2 {e}cd c2 B2  | z2 d4 cB =fe dc BA G2  | 
w:  rün *  *  de  sen   |  hiç   | 
z2 c4 Ac B2 GB A2 {B}AG  | F2 G4 D2 B2 AG G4  | |


